01 - Tokens/EURA.svg

<svg width="116" height="115" viewBox="0 0 116 115" fill="none" xmlns="http://www.w3.org/2000/svg">
<g clip-path="url(#clip0_6664_290608)">
<circle cx="57.7644" cy="57.2863" r="57.2954" fill="url(#paint0_linear_6664_290608)"/>
<path d="M89.0187 49.3958L57.7231 17.4386L26.4246 49.3958L42.0723 65.3729L57.7231 49.3958L73.3709 65.3729L89.0187 49.3958Z" fill="white"/>
<path d="M56.4619 94.2401C54.9062 94.2401 53.5677 93.9597 52.4462 93.399C51.3427 92.8201 50.4926 92.0061 49.8956 90.957C49.3168 89.8898 49.0274 88.6326 49.0274 87.1855V74.867H52.609V87.294C52.609 88.4517 52.9346 89.3652 53.5858 90.0345C54.255 90.7038 55.2138 91.0384 56.4619 91.0384C57.71 91.0384 58.6597 90.7038 59.3109 90.0345C59.9802 89.3652 60.3148 88.4517 60.3148 87.294V74.867H63.8964V87.1855C63.8964 88.6326 63.5979 89.8898 63.001 90.957C62.4222 92.0061 61.572 92.8201 60.4505 93.399C59.3471 93.9597 58.0175 94.2401 56.4619 94.2401Z" fill="#1F2333"/>
<path d="M72.0849 93.8603V74.867H80.3334C81.5273 74.867 82.5674 75.075 83.4537 75.491C84.3401 75.9071 85.0275 76.495 85.5159 77.2547C86.0043 78.0144 86.2485 78.9098 86.2485 79.9409V80.2665C86.2485 81.4061 85.9771 82.3286 85.4345 83.0341C84.8918 83.7395 84.2225 84.2551 83.4266 84.5807V85.0691C84.1502 85.1053 84.7109 85.3585 85.1089 85.8288C85.5068 86.281 85.7058 86.887 85.7058 87.6467V93.8603H82.1242V88.1623C82.1242 87.7281 82.0066 87.3754 81.7715 87.1041C81.5544 86.8327 81.1836 86.6971 80.659 86.6971H75.6665V93.8603H72.0849ZM75.6665 83.4411H79.9535C80.8037 83.4411 81.464 83.215 81.9343 82.7627C82.4227 82.2924 82.6669 81.6774 82.6669 80.9177V80.6464C82.6669 79.8866 82.4317 79.2806 81.9614 78.8284C81.4911 78.3581 80.8218 78.123 79.9535 78.123H75.6665V83.4411Z" fill="#1F2333"/>
<path fill-rule="evenodd" clip-rule="evenodd" d="M28.9458 94.3074V74.4199H42.05V78.5701H33.4216V82.2071H41.2903V86.3573H33.4216V90.1572H42.2128V94.3074H28.9458ZM52.2421 93.797L52.2383 93.795C51.0617 93.1777 50.1475 92.3042 49.5068 91.1781L49.5046 91.1742L49.5024 91.1702C48.8819 90.026 48.5801 88.6928 48.5801 87.1855V74.4199H53.0559V87.294C53.0559 88.3633 53.3538 89.1538 53.9039 89.7205C54.4652 90.2804 55.2945 90.5913 56.4617 90.5913C57.6313 90.5913 58.4487 90.2793 58.9902 89.7227L58.9945 89.7183C59.562 89.1509 59.8675 88.3613 59.8675 87.294V74.4199H64.3434V87.1855C64.3434 88.6944 64.0319 90.029 63.3918 91.1739C62.7679 92.3044 61.8509 93.1793 60.6554 93.7963L60.6529 93.7976C59.4727 94.3974 58.0701 94.6873 56.4617 94.6873C54.853 94.6873 53.4428 94.3973 52.246 93.7989L52.2421 93.797ZM63.001 90.957C63.5979 89.8898 63.8964 88.6326 63.8964 87.1855V74.867H60.3148V87.294C60.3148 88.4517 59.9802 89.3652 59.3109 90.0345C58.6597 90.7038 57.71 91.0384 56.4619 91.0384C55.2138 91.0384 54.255 90.7038 53.5858 90.0345C52.9346 89.3652 52.609 88.4517 52.609 87.294V74.867H49.0274V87.1855C49.0274 88.6326 49.3168 89.8898 49.8956 90.957C50.4926 92.0061 51.3427 92.8201 52.4462 93.399C53.5677 93.9597 54.9062 94.2401 56.4619 94.2401C58.0175 94.2401 59.3471 93.9597 60.4505 93.399C61.572 92.8201 62.4222 92.0061 63.001 90.957ZM71.6376 94.3074V74.4199H80.3332C81.5787 74.4199 82.6862 74.6369 83.6436 75.0863C84.5994 75.535 85.3541 76.1765 85.8918 77.0129C86.4329 77.8546 86.6954 78.8366 86.6954 79.9409V80.2665C86.6954 81.4768 86.4065 82.5035 85.7887 83.3067C85.3293 83.904 84.7827 84.3794 84.1509 84.7289C84.6647 84.8659 85.1031 85.1314 85.4472 85.5367C85.9323 86.0897 86.1528 86.8093 86.1528 87.6468V94.3074H81.6769V88.1623C81.6769 87.8122 81.5841 87.5708 81.4334 87.3969L81.4277 87.3903L81.4222 87.3834C81.326 87.2632 81.1184 87.1442 80.6588 87.1442H76.1134V94.3074H71.6376ZM75.6665 86.6971H80.659C81.1836 86.6971 81.5544 86.8327 81.7715 87.1041C82.0066 87.3754 82.1242 87.7281 82.1242 88.1623V93.8603H85.7058V87.6467C85.7058 86.887 85.5068 86.281 85.1089 85.8288C84.7109 85.3585 84.1502 85.1053 83.4266 85.0691V84.5807C84.2225 84.2551 84.8918 83.7395 85.4345 83.0341C85.9771 82.3286 86.2485 81.4061 86.2485 80.2665V79.9409C86.2485 78.9098 86.0043 78.0144 85.5159 77.2547C85.0275 76.495 84.3401 75.9071 83.4537 75.491C82.5674 75.075 81.5273 74.867 80.3334 74.867H72.0849V93.8603H75.6665V86.6971ZM81.6482 79.1477L81.6451 79.1446C81.282 78.7815 80.7408 78.5701 79.9534 78.5701H76.1134V82.994H79.9534C80.7242 82.994 81.26 82.7906 81.6241 82.4406C82.0139 82.0651 82.2196 81.572 82.2196 80.9177V80.6464C82.2196 79.9865 82.0195 79.5047 81.6513 79.1507L81.6482 79.1477ZM81.9343 82.7627C81.464 83.215 80.8037 83.4411 79.9535 83.4411H75.6665V78.123H79.9535C80.8218 78.123 81.4911 78.3581 81.9614 78.8284C82.4317 79.2806 82.6669 79.8866 82.6669 80.6464V80.9177C82.6669 81.6774 82.4227 82.2924 81.9343 82.7627Z" fill="#1F2333"/>
</g>
<defs>
<linearGradient id="paint0_linear_6664_290608" x1="19.0494" y1="92.0081" x2="83.0485" y2="35.0873" gradientUnits="userSpaceOnUse">
<stop offset="0.0729167" stop-color="#AAC4FD"/>
<stop offset="1" stop-color="#76A0FC"/>
</linearGradient>
<clipPath id="clip0_6664_290608">
<rect width="115" height="115" fill="white" transform="translate(0.47998 0.000305176)"/>
</clipPath>
</defs>
</svg>

<svg width="116" height="115" fill="none" xmlns="http://www.w3.org/2000/svg"><g clip-path="url(#clip0_6664_290608)"><circle cx="57.764" cy="57.286" r="57.295" fill="url(#paint0_linear_6664_290608)"/><path d="M89.019 49.396L57.723 17.439 26.425 49.396l15.647 15.977 15.651-15.977 15.648 15.977 15.648-15.977z" fill="#fff"/><path d="M56.462 94.24c-1.556 0-2.894-.28-4.016-.841-1.103-.579-1.953-1.393-2.55-2.442-.58-1.067-.869-2.324-.869-3.771V74.867h3.582v12.427c0 1.158.326 2.071.977 2.74.669.67 1.628 1.004 2.876 1.004s2.198-.334 2.849-1.004c.67-.669 1.004-1.582 1.004-2.74V74.867h3.581v12.319c0 1.447-.298 2.704-.895 3.771-.579 1.05-1.429 1.863-2.55 2.442-1.104.56-2.434.841-3.99.841zm15.623-.38V74.867h8.248c1.194 0 2.234.208 3.12.624.887.416 1.575 1.004 2.063 1.764.488.76.733 1.655.733 2.686v.325c0 1.14-.272 2.063-.814 2.768a4.787 4.787 0 0 1-2.008 1.547v.488c.723.036 1.284.29 1.682.76.398.452.597 1.058.597 1.818v6.213h-3.582v-5.698c0-.434-.117-.787-.352-1.058-.218-.271-.588-.407-1.113-.407h-4.993v7.163h-3.581zm3.582-10.419h4.287c.85 0 1.51-.226 1.98-.678.489-.47.733-1.086.733-1.845v-.272c0-.76-.235-1.365-.706-1.818-.47-.47-1.14-.705-2.007-.705h-4.287v5.318z" fill="#1F2333"/><path fill-rule="evenodd" clip-rule="evenodd" d="M28.946 94.307V74.42H42.05v4.15h-8.628v3.637h7.868v4.15h-7.868v3.8h8.79v4.15H28.947zm23.296-.51l-.004-.002c-1.176-.617-2.09-1.49-2.731-2.617l-.002-.004-.003-.004c-.62-1.144-.922-2.477-.922-3.984V74.42h4.476v12.874c0 1.07.298 1.86.848 2.427.561.56 1.39.87 2.558.87 1.17 0 1.987-.312 2.528-.868l.005-.005c.567-.567.873-1.357.873-2.424V74.42h4.475v12.766c0 1.508-.311 2.843-.951 3.988-.624 1.13-1.541 2.005-2.737 2.622l-.002.002c-1.18.6-2.583.89-4.191.89-1.609 0-3.02-.29-4.216-.89l-.004-.001zm10.759-2.84c.597-1.067.895-2.324.895-3.771V74.867h-3.581v12.427c0 1.158-.335 2.071-1.004 2.74-.651.67-1.601 1.004-2.85 1.004-1.247 0-2.206-.334-2.875-1.004-.651-.669-.977-1.582-.977-2.74V74.867h-3.582v12.319c0 1.447.29 2.704.869 3.771.597 1.05 1.447 1.863 2.55 2.442 1.122.56 2.46.841 4.016.841 1.555 0 2.885-.28 3.988-.841 1.122-.579 1.972-1.393 2.551-2.442zm8.637 3.35V74.42h8.695c1.246 0 2.353.217 3.31.666.956.449 1.711 1.09 2.249 1.927.54.842.803 1.824.803 2.928v.325c0 1.21-.288 2.237-.906 3.04a5.281 5.281 0 0 1-1.638 1.423 2.51 2.51 0 0 1 1.296.808c.485.553.706 1.272.706 2.11v6.66h-4.476v-6.145c0-.35-.093-.591-.244-.765l-.005-.007-.006-.007c-.096-.12-.304-.239-.763-.239h-4.546v7.163h-4.475zm4.028-7.61h4.993c.525 0 .895.136 1.112.407.236.271.353.624.353 1.058v5.698h3.582v-6.213c0-.76-.2-1.366-.597-1.818-.398-.47-.959-.724-1.682-.76v-.488a4.787 4.787 0 0 0 2.007-1.547c.543-.705.815-1.628.815-2.768v-.325c0-1.031-.245-1.927-.733-2.686-.489-.76-1.176-1.348-2.062-1.764-.887-.416-1.927-.624-3.12-.624h-8.25V93.86h3.582v-7.163zm5.982-7.55l-.003-.002c-.363-.364-.904-.575-1.692-.575h-3.84v4.424h3.84c.771 0 1.307-.203 1.671-.553.39-.376.596-.869.596-1.523v-.272c0-.66-.2-1.141-.569-1.495l-.003-.003zm.286 3.616c-.47.452-1.13.678-1.98.678h-4.287v-5.318h4.287c.868 0 1.537.235 2.007.705.47.453.706 1.059.706 1.818v.272c0 .76-.244 1.374-.733 1.845z" fill="#1F2333"/></g><defs><linearGradient id="paint0_linear_6664_290608" x1="19.049" y1="92.008" x2="83.049" y2="35.087" gradientUnits="userSpaceOnUse"><stop offset=".073" stop-color="#AAC4FD"/><stop offset="1" stop-color="#76A0FC"/></linearGradient><clipPath id="clip0_6664_290608"><path fill="#fff" transform="translate(.48)" d="M0 0H115V115H0z"/></clipPath></defs></svg>
